X: 1624
T: Murphy's Hornpipe   #2
R: hornpipe
B: O'Neill's 1850 #1624
O: Tobin
Z: Michael D. Long, 10/11/98
Z: Michael Hogan
M: C|
L: 1/8
K: G
(3(DEF) |:\
GABG EFGE | ABcA FGAF | GBdg ecA [1,3 G | FGAF DEFD :|[2,4 F | G2 GG G2 :: (Bc) | dedc BcdB |
| (3(efg) ed cdef | gfgd ecAG | FGAF DEFD || GABG EFGE | ABcA FGAF | GBdg ecAF | G2 GG G2 :|
